svg/ricky/side/emotion/sadlookingup.svg

<?xml version="1.0" encoding="UTF-8"?>
<svg width="500px" height="600px" viewBox="0 0 500 600" version="1.1" xmlns="http://www.w3.org/2000/svg" xmlns:xlink="http://www.w3.org/1999/xlink">
    <title>sadlookingup</title>
    <defs>
        <polygon id="path-1" points="0 0.084 173.37488 0.084 173.37488 192.102015 0 192.102015"></polygon>
    </defs>
    <g id="sadlookingup" stroke="none" stroke-width="1" fill="none" fill-rule="evenodd">
        <g transform="translate(154.000000, 64.000000)">
            <g id="face" transform="translate(0.000000, 0.916000)">
                <mask id="mask-2" fill="white">
                    <use xlink:href="#path-1"></use>
                </mask>
                <g id="Clip-5"></g>
                <path d="M171.0484,137.3859 C170.9034,137.5149 170.7924,137.6879 170.7624,137.9199 C169.5324,147.5449 162.4274,154.9569 155.6844,161.4389 C155.3624,161.3509 154.9874,161.4199 154.7384,161.7529 C150.6494,167.2129 148.0464,174.3569 142.1724,178.2569 C135.6434,182.5909 127.3674,181.2159 120.2964,179.1599 C116.3594,178.0159 112.5024,176.5929 108.6294,175.2519 C104.2834,173.7479 99.9384,172.2429 95.5934,170.7399 C87.9334,168.0879 80.0714,165.5149 73.3784,160.8089 C67.2364,156.4899 62.1384,149.8729 61.3944,142.2619 C61.3824,142.1729 61.3784,142.0839 61.3614,141.9949 C61.3174,141.4609 61.2914,140.9229 61.2914,140.3799 C61.2904,139.5659 60.3224,139.3819 59.8724,139.8209 C59.3964,139.9429 58.9964,140.4619 59.3064,141.0249 C59.5354,141.4389 59.6714,141.8779 59.7484,142.3229 C59.7654,142.5039 59.7814,142.6849 59.8034,142.8639 C59.8694,144.2729 59.2894,145.7079 58.2984,146.7449 C57.4494,147.6329 56.3584,148.1419 55.1934,148.3689 C54.8834,148.1629 54.5214,148.0429 54.1364,148.0699 C50.5764,148.3219 47.9104,145.0959 45.7254,142.7269 C42.8614,139.6229 40.1354,136.3869 37.5834,133.0219 C37.3714,132.7409 37.1114,132.5119 36.8274,132.3409 C36.7144,132.1489 36.5934,131.9609 36.4834,131.7669 C36.4774,131.7539 36.4714,131.7409 36.4654,131.7299 C36.4574,131.7139 36.4454,131.7029 36.4384,131.6889 C35.0864,129.2899 33.9884,126.7679 33.5094,124.0379 C33.2804,122.7339 33.2594,121.3619 33.5134,120.0479 C33.6394,119.9319 33.7594,119.7999 33.8644,119.6369 C34.9284,117.9939 36.6934,116.9089 38.5944,116.5359 C39.3824,116.6849 40.1794,116.6429 40.9344,116.4469 C41.3294,116.4939 41.7204,116.5739 42.1024,116.6899 C43.9484,117.2489 45.7144,118.6349 47.1934,119.8439 C48.7974,121.1549 50.1474,122.6169 51.0014,124.5219 C51.3434,125.2829 52.2754,125.5909 53.0784,125.4599 C53.3594,125.5239 53.6344,125.5319 53.8974,125.4909 C54.0604,125.4899 54.2134,125.4489 54.3444,125.3649 C54.8954,125.1449 55.3394,124.6929 55.5374,124.0629 C55.8914,122.9389 56.0094,121.8259 55.9534,120.7339 C56.0114,120.5409 56.0694,120.3499 56.1274,120.1569 C56.2284,119.8239 56.0614,119.4419 55.7714,119.2519 C55.5664,118.1719 55.2134,117.1139 54.7684,116.0819 C53.4954,109.0589 50.8124,102.3309 46.8594,96.3719 L48.4814,96.9899 C49.7574,97.4769 51.0674,98.1199 52.4234,98.3399 C53.5474,98.5229 54.5974,98.2619 55.4134,97.6389 C56.1264,97.9639 56.9754,97.9949 57.6544,97.5309 C59.3024,96.4039 60.7304,95.0759 61.9414,93.5309 C62.3574,93.0809 62.7224,92.5839 63.0084,92.0319 C63.1164,91.8239 63.1874,91.6189 63.2394,91.4179 C64.3074,89.7129 65.1594,87.8719 65.7714,85.9539 C68.4624,83.5629 69.2844,79.6619 69.2134,76.0009 C71.9844,79.3199 76.0604,81.4739 80.3874,81.9489 C85.9864,82.5659 91.3794,79.9259 94.7524,75.4969 C95.7054,74.2459 96.4524,72.8709 97.0064,71.4229 C97.2964,70.9069 97.5734,70.3849 97.8364,69.8559 C100.0564,73.5319 103.5774,76.4919 107.8264,77.3909 C112.8884,78.4609 118.0034,76.0769 120.5134,71.5449 C121.0574,70.5619 121.4294,69.5039 121.6354,68.4209 C121.9754,70.3099 122.5734,71.9479 124.0664,73.4409 C124.7104,74.0849 125.5284,74.6559 126.4204,75.1059 C127.9134,76.4769 129.7774,77.3779 132.1524,77.4499 C135.0274,77.5379 137.4764,75.7819 138.8614,73.3479 C139.9164,71.4949 140.3034,69.4359 140.4234,67.3429 C142.5004,70.4139 146.1234,72.4679 149.8854,72.2169 C153.7974,71.9559 157.1794,69.4299 158.8384,66.0089 C159.6524,66.4509 160.5354,66.7559 161.4604,66.9009 C161.5424,66.9399 161.6194,66.9879 161.7034,67.0239 C157.4144,72.4069 157.7184,80.3679 159.0824,86.7709 C160.6854,94.2959 164.1274,101.2539 166.9404,108.3659 C168.5624,112.4669 169.9914,116.6519 170.7914,120.9959 C170.8084,121.0859 170.8464,121.1519 170.8824,121.2199 C171.4694,126.5889 171.5234,132.0049 171.0484,137.3859 M117.8824,188.8349 C117.1194,189.6029 115.9014,189.9819 114.8754,190.2389 C113.7794,190.5129 112.5164,190.6419 111.4574,190.1569 C110.3374,189.6439 109.8644,188.4459 109.1054,187.5539 C108.7644,187.1539 108.3694,186.8629 107.9384,186.5719 C107.2824,186.1279 107.3514,185.6849 107.3304,184.9359 C107.2494,182.1359 107.1684,179.3349 107.0874,176.5349 C110.5704,177.7419 114.0594,178.9279 117.5674,180.0449 C117.5604,180.1429 117.5654,180.2449 117.6024,180.3579 C118.0744,181.8179 118.4024,183.3169 118.5214,184.8479 C118.6194,186.1059 118.8594,187.8539 117.8824,188.8349 M106.4564,3.6919 C105.7534,4.2209 104.9314,4.6619 104.0514,4.9889 C104.8064,4.4849 105.6134,4.0489 106.4564,3.6919 M136.7944,73.4409 C136.8194,73.4129 136.8434,73.3809 136.8684,73.3539 C135.8134,74.7409 134.3264,75.6979 132.5434,75.7819 C134.1464,75.4079 135.6634,74.6719 136.7944,73.4409 M143.5784,68.4159 C142.5944,67.5849 141.7734,66.5579 141.1934,65.4049 C141.9154,66.4679 142.7144,67.4769 143.5784,68.4159 M171.5004,116.7339 C167.9884,103.8099 159.5944,92.0199 159.8554,78.3009 C159.9284,74.4409 160.8554,70.4299 163.4784,67.5049 C163.9124,67.5579 164.3514,67.5719 164.7854,67.5309 C168.1544,67.2119 170.7354,64.4909 171.9514,61.4929 C173.4154,57.8859 173.4804,53.5769 173.3074,49.7399 C173.1834,46.9779 172.7314,44.1559 171.6804,41.5809 C171.2984,40.2199 170.5814,39.0019 169.6524,37.9809 C168.0094,35.8019 165.7904,34.0499 163.2034,33.2119 C163.1914,33.1789 163.1754,33.1469 163.1634,33.1139 C163.6024,30.9639 163.8994,28.6319 162.8144,26.6339 C162.4214,25.9109 161.8804,25.3109 161.2424,24.8699 C160.7514,22.8709 159.9424,21.0879 158.5404,19.6219 C158.1394,18.7569 157.5724,17.9689 156.8194,17.3269 C155.5444,16.2409 153.8764,15.7079 152.2414,15.7999 C151.7434,14.6939 151.0344,13.6469 150.0824,12.6939 C146.8414,9.4529 140.6904,8.1849 136.7524,10.9739 C136.4594,11.1819 136.1644,11.3959 135.8674,11.6099 C135.1264,8.8609 133.1874,6.5939 130.7034,5.1849 C130.5084,5.0309 130.3214,4.8689 130.1144,4.7279 C128.0404,3.3169 125.3354,2.7479 122.9084,3.3419 C122.3384,2.7839 121.7074,2.2929 121.0284,1.8699 C120.5284,1.2759 119.8554,0.8029 119.0984,0.5489 C118.2874,0.2779 117.4344,0.2119 116.5794,0.2259 C114.6374,-0.0761 112.6144,0.0949 110.7384,0.8179 C110.5514,0.8489 110.3624,0.8679 110.1754,0.9029 C106.6944,1.5449 103.1604,3.0479 100.7704,5.6169 C99.3164,5.6349 97.9234,5.2839 96.8584,4.4499 C93.6814,1.9629 90.3704,0.9649 87.0854,1.5909 C83.6394,1.9059 81.1684,4.2479 78.7224,6.5529 C77.8334,7.2779 76.9444,8.0019 76.0554,8.7269 C73.5074,7.2979 70.9724,5.8089 68.3444,4.5479 C65.8214,3.3379 62.9884,2.4959 60.2254,3.3969 C54.9224,5.1239 52.9684,10.6539 51.7084,15.5959 C47.7114,13.1979 42.7214,12.5509 38.2414,13.8839 C36.7454,14.3279 35.3524,15.0189 34.0694,15.8689 C31.8054,16.8919 29.7664,18.4469 28.1484,20.6259 C25.7324,23.8799 24.7344,27.7929 25.1944,31.5389 C24.4954,31.8209 23.6744,31.9739 23.1374,32.1849 C22.0384,32.6149 20.9804,33.1419 19.9864,33.7819 C17.4974,35.3829 15.3884,37.6019 13.9204,40.1779 C12.6104,41.7549 11.5774,43.5879 10.9544,45.7559 C9.4904,50.8549 10.7244,55.7419 13.5084,59.8039 C10.0694,60.6649 6.8514,62.3929 4.4484,65.0269 C2.6184,67.0319 1.4084,69.4799 0.9064,72.0739 C-0.5766,76.0229 -0.0616,80.6739 3.2624,83.7259 C3.4384,83.8879 3.6224,84.0319 3.8044,84.1809 C0.4354,86.0269 -0.4946,90.9599 0.2304,94.5029 C0.9474,98.0079 3.1174,101.1139 6.0924,103.0259 C5.6354,103.5479 5.2244,104.1269 4.8664,104.7669 C4.8514,104.7889 4.8324,104.8089 4.8174,104.8319 C4.4974,105.3059 4.2814,105.8209 4.1364,106.3549 C2.4124,111.0709 3.8604,117.3849 8.7494,119.7739 C9.8904,120.3309 10.0044,120.1529 10.4614,120.8639 C11.5084,122.4949 12.7794,123.6699 14.1594,124.4929 C13.1804,125.6229 12.6874,127.2039 13.0824,128.9819 C13.0924,129.0309 13.1064,129.0779 13.1174,129.1259 C13.0824,129.4279 13.0454,129.7299 13.0314,130.0319 C12.8634,133.8679 14.5124,137.4439 16.4184,140.6709 C18.4944,144.1889 20.5874,147.8239 23.0114,151.1149 C25.1954,154.0779 28.1284,156.7399 31.9204,157.2339 C34.9434,157.6259 38.1974,156.1819 39.5584,153.4699 C40.2094,154.0279 40.9264,154.5109 41.6874,154.9089 C42.6954,156.3309 44.2094,157.5359 45.4244,158.4799 C47.6724,160.2269 50.2614,161.6009 53.0584,162.2099 C58.1564,163.3219 63.8294,161.6729 66.8694,157.2849 C67.6614,158.1469 68.4904,158.9719 69.3634,159.7389 C75.6904,165.2929 83.7274,168.3429 91.5654,171.0819 C96.1834,172.6969 100.7984,174.3469 105.4244,175.9619 C105.5034,178.7089 105.5824,181.4569 105.6624,184.2039 C105.6954,185.3649 105.5324,186.7179 106.4984,187.5569 C106.8854,187.8929 107.3584,188.1029 107.7174,188.4719 C108.1154,188.8789 108.3994,189.3749 108.7294,189.8349 C110.1134,191.7649 112.1294,192.3599 114.4294,192.0049 C116.4154,191.6989 118.9964,190.8189 119.8474,188.8209 C120.4004,187.5229 120.2714,185.9369 120.1444,184.5659 C120.0204,183.2239 119.7644,181.9039 119.3934,180.6109 C126.1774,182.6399 133.7524,184.0209 140.4234,181.0849 C147.7284,177.8699 150.8514,170.2849 155.1194,164.0469 C155.2694,164.0249 155.4204,163.9719 155.5584,163.8389 C162.2954,157.4089 169.4274,150.2619 171.7904,141.0539 C172.0844,140.9509 172.3384,140.7109 172.3854,140.3279 C173.3344,132.6649 173.1944,124.9329 172.0224,117.3019 C171.9684,116.9539 171.7534,116.7839 171.5004,116.7339" id="Fill-4" fill="#231F20" mask="url(#mask-2)"></path>
            </g>
            <g id="eyes" transform="translate(81.159834, 79.503391)" fill="#231F20">
                <path d="M31.2792659,43.8337089 C31.1022659,44.8317089 30.8762659,45.8977089 30.6012659,46.9617089 C30.4822659,46.9167089 30.3432659,46.8967089 30.1842659,46.9067089 C23.5682659,47.3867089 17.1292659,49.0017089 11.0622659,51.6657089 C9.7992659,50.2887089 8.8262659,48.6527089 8.2472659,46.8517089 C8.3572659,46.6387089 8.3942659,46.3827089 8.2792659,46.1127089 C6.8402659,42.7137089 5.3382659,39.1567089 5.1692659,35.4197089 C5.0082659,31.8537089 6.3202659,28.5897089 8.0602659,25.5447089 C9.7222659,22.6337089 11.5272659,19.6197089 13.7142659,17.0707089 C14.1862659,16.5197089 14.6972659,15.9937089 15.2382659,15.5007089 C14.9382659,16.7667089 14.9462659,18.1517089 15.0742659,19.3667089 C15.4122659,22.5817089 16.7372659,25.6147089 18.6512659,28.2027089 C20.4442659,30.6277089 22.6802659,32.8197089 25.1522659,34.5517089 C27.1332659,35.9397089 29.6122659,36.6557089 31.7742659,35.6177089 C31.9092659,38.3627089 31.7602659,41.1207089 31.2792659,43.8337089 M33.3022659,33.7707089 C32.8422659,28.9277089 31.4932659,24.2267089 29.3232659,19.8767089 C28.9042659,18.6077089 28.3412659,17.3927089 27.6212659,16.2667089 C27.5362659,16.1347089 27.4312659,16.0487089 27.3202659,15.9857089 C27.0892659,15.4917089 26.8442659,15.0037089 26.5652659,14.5327089 C25.7022659,13.0807089 24.4192659,11.7437089 22.8752659,11.1287089 C22.7482659,10.9237089 22.5372659,10.7707089 22.2192659,10.7746323 C22.0202659,10.7767089 21.8292659,10.7987089 21.6342659,10.8117089 C21.0832659,10.7437089 20.5082659,10.7677089 19.9142659,10.9137089 C19.7302659,10.9607089 19.6082659,11.0567089 19.5122659,11.1697089 C15.0512659,12.4057089 11.8792659,16.4137089 9.4032659,20.2497089 C6.1272659,25.3267089 2.8552659,30.5957089 3.6542659,36.8927089 C4.0282659,39.8277089 5.0522659,42.6027089 6.1782659,45.3227089 C6.1802659,45.3397089 6.1742659,45.3517089 6.1772659,45.3677089 C6.6512659,48.2527089 8.0092659,50.8017089 9.9132659,52.8067089 C9.9932659,53.4147089 10.6732659,54.0107089 11.4242659,53.6697089 C17.3372659,50.9877089 23.7092659,49.3767089 30.1842659,48.9067089 C31.0152659,48.8477089 31.3002659,47.9837089 31.0492659,47.4097089 C31.3022659,47.3357089 31.5542659,47.2587089 31.8102659,47.1897089 C31.9592659,47.1497089 32.0972659,47.1407089 32.2412659,47.1167089 C33.3712659,42.7807089 33.7262659,38.2297089 33.3022659,33.7707089" id="Fill-7"></path>
                <path d="M63.4564659,41.4713089 C61.8174659,38.0703089 61.3844659,33.7893089 60.9884659,30.3943089 C60.4254659,25.5753089 60.4394659,20.3643089 62.1644659,15.8173089 C62.9184659,19.4333089 64.8444659,22.8753089 68.2874659,24.5203089 C71.3014659,25.9593089 75.7204659,25.8483089 77.9494659,23.2453089 C78.4454659,25.4783089 78.7334659,27.7633089 78.9614659,30.0293089 C79.1924659,32.3143089 79.2934659,34.6403089 79.1144659,36.9403089 C79.0664659,36.9353089 79.0294659,36.9153089 78.9774659,36.9163089 C73.5064659,37.0983089 68.1554659,38.6613089 63.4564659,41.4713089 M80.7944659,32.3403089 C80.5974659,28.9323089 80.1714659,25.4543089 79.3764659,22.1323089 C79.2844659,21.7453089 79.1794659,21.3603089 79.0704659,20.9743089 C79.0664659,20.8293089 79.0334659,20.6983089 78.9584659,20.5913089 C78.0264659,17.4733089 76.5164659,14.4823089 74.0214659,12.3363089 C72.9444659,11.4093089 71.7344659,10.6653089 70.4474659,10.1483089 C70.3184659,10.0463089 70.1914659,9.94130893 70.0584659,9.84330893 C69.0334659,9.09330893 67.7904659,8.32230893 66.4654659,8.46930893 C66.0644659,8.51430893 65.7044659,8.64830893 65.3854659,8.83730893 C65.1114659,8.68930893 64.7704659,8.69130893 64.4884659,8.99030893 C59.4844659,14.2973089 58.5444659,21.8363089 59.1774659,28.8203089 C59.4864659,32.2303089 59.9344659,35.7323089 60.8714659,39.0333089 C61.2574659,40.3933089 61.7624659,41.7603089 62.4464659,43.0193089 C62.6024659,42.8903089 62.7754659,42.7733089 62.9584659,42.6643089 C63.1424659,43.2123089 63.7344659,43.6343089 64.3754659,43.2483089 C68.7954659,40.5863089 73.8184659,39.0873089 78.9774659,38.9163089 C79.3954659,38.9033089 79.6644659,38.6733089 79.8104659,38.3803089 C80.0914659,38.3853089 80.3724659,38.3763089 80.6524659,38.3943089 C80.9034659,36.3883089 80.9114659,34.3443089 80.7944659,32.3403089" id="Fill-11"></path>
                <path d="M18.7196659,2.17540893 C13.6896659,7.17540893 7.4936659,10.8704089 0.700665902,12.9094089 C-0.529334098,13.2794089 -0.00533409776,15.2104089 1.2326659,14.8384089 C8.3506659,12.7004089 14.8626659,8.82940893 20.1336659,3.58940893 C21.0476659,2.68140893 19.6336659,1.26640893 18.7196659,2.17540893" id="Fill-13"></path>
                <path d="M75.6087659,5.04650893 C70.9997659,4.60150893 66.5987659,2.86950893 62.8627659,0.146508934 C62.4237659,-0.175491066 61.7527659,0.0735089341 61.4947659,0.503508934 C61.1937659,1.00750893 61.4197659,1.55650893 61.8537659,1.87250893 C65.8847659,4.81250893 70.6507659,6.56650893 75.6087659,7.04650893 C76.1477659,7.09950893 76.6087659,6.55050893 76.6087659,6.04650893 C76.6087659,5.46250893 76.1487659,5.09950893 75.6087659,5.04650893" id="Fill-15"></path>
            </g>
            <path d="M139.3575,130.4562 C137.3165,127.7392 135.2235,125.0602 133.1695,122.3522 C131.1835,119.7342 128.7845,116.1842 130.6525,112.8622 C131.1725,111.9372 129.7505,111.1062 129.2305,112.0312 C127.5725,114.9792 128.5155,118.3592 130.2285,121.0502 C132.3115,124.3222 134.9115,127.3242 137.2645,130.4052 C138.6075,132.1652 143.2735,138.4042 138.6785,139.1682 C136.7325,139.4912 134.7035,138.6722 132.9205,137.9912 C131.0625,137.2812 129.2625,136.4372 127.5115,135.4942 C126.5785,134.9912 125.7455,136.4132 126.6805,136.9162 C129.4585,138.4122 132.4845,139.8642 135.5735,140.5842 C137.9915,141.1472 141.4725,141.0122 142.1295,138.0252 C142.7365,135.2632 140.9295,132.5492 139.3575,130.4562" id="nose" fill="#231F20"></path>
            <path d="M145.9117,157.4337 C143.3567,152.1757 137.4657,148.6647 131.5927,149.2187 C125.8277,149.7627 120.8287,153.8387 119.0057,159.3087 C118.5977,160.5327 120.5287,161.0567 120.9337,159.8397 C122.4977,155.1487 126.9737,151.5217 131.9507,151.1907 C137.0677,150.8497 141.9657,153.8747 144.1847,158.4437 C144.7467,159.6007 146.4727,158.5877 145.9117,157.4337" id="mouth" fill="#231F20"></path>
        </g>
    </g>
</svg>

<svg width="500" height="600" xmlns="http://www.w3.org/2000/svg" xmlns:xlink="http://www.w3.org/1999/xlink"><defs><path id="a" d="M0 .084h173.375v192.018H0z"/></defs><g fill="none" fill-rule="evenodd"><g transform="translate(154 64.916)"><mask id="b" fill="#fff"><use xlink:href="#a"/></mask><path d="M171.048 137.386a.842.842 0 00-.286.534c-1.23 9.625-8.335 17.037-15.078 23.519-.322-.088-.697-.02-.946.314-4.089 5.46-6.692 12.604-12.566 16.504-6.529 4.334-14.805 2.959-21.876.903-3.937-1.144-7.794-2.567-11.667-3.908-4.346-1.504-8.69-3.01-13.036-4.512-7.66-2.652-15.522-5.225-22.215-9.931-6.142-4.32-11.24-10.936-11.984-18.547-.012-.09-.016-.178-.033-.267a19.649 19.649 0 01-.07-1.615c0-.814-.969-.998-1.419-.56-.476.123-.876.642-.566 1.205.23.414.365.853.442 1.298.017.18.033.362.055.54.066 1.41-.514 2.845-1.505 3.882-.849.888-1.94 1.397-3.105 1.624a1.69 1.69 0 00-1.057-.3c-3.56.253-6.226-2.973-8.41-5.342a131.582 131.582 0 01-8.143-9.705 2.68 2.68 0 00-.756-.681c-.113-.192-.234-.38-.344-.574a.644.644 0 00-.018-.037c-.008-.016-.02-.027-.027-.041-1.352-2.4-2.45-4.921-2.929-7.651-.229-1.304-.25-2.676.004-3.99.126-.116.246-.248.351-.411 1.064-1.643 2.83-2.728 4.73-3.101a5.347 5.347 0 002.34-.09c.395.048.786.128 1.168.244 1.846.559 3.612 1.945 5.091 3.154 1.604 1.31 2.954 2.773 3.808 4.678.342.76 1.274 1.069 2.077.938.281.064.556.072.82.03a.828.828 0 00.446-.125c.551-.22.995-.672 1.193-1.302a9.385 9.385 0 00.416-3.33l.174-.576c.101-.333-.066-.715-.356-.905-.205-1.08-.558-2.138-1.003-3.17a52.681 52.681 0 00-7.909-19.71l1.622.618c1.276.487 2.586 1.13 3.942 1.35 1.124.183 2.174-.078 2.99-.701.713.325 1.562.356 2.241-.108a19.093 19.093 0 004.287-4 6.85 6.85 0 001.067-1.5 2.8 2.8 0 00.231-.613 24.114 24.114 0 002.532-5.464c2.691-2.391 3.513-6.292 3.442-9.953 2.771 3.319 6.847 5.473 11.174 5.948 5.6.617 10.992-2.023 14.365-6.452a16.34 16.34 0 002.254-4.074c.29-.516.567-1.038.83-1.567 2.22 3.676 5.741 6.636 9.99 7.535 5.062 1.07 10.177-1.314 12.687-5.846.544-.983.916-2.041 1.122-3.124.34 1.889.938 3.527 2.431 5.02.644.644 1.462 1.215 2.354 1.665 1.493 1.37 3.357 2.272 5.732 2.344 2.875.088 5.324-1.668 6.71-4.102 1.054-1.853 1.441-3.912 1.561-6.005 2.077 3.07 5.7 5.125 9.462 4.874 3.912-.261 7.294-2.787 8.953-6.208a8.127 8.127 0 002.622.892c.082.039.16.087.243.123-4.289 5.383-3.985 13.344-2.62 19.747 1.602 7.525 5.044 14.483 7.857 21.595 1.622 4.1 3.051 8.286 3.851 12.63.017.09.055.156.091.224a82.23 82.23 0 01.166 16.166m-53.166 51.449c-.763.768-1.98 1.147-3.007 1.404-1.096.274-2.359.403-3.418-.082-1.12-.513-1.593-1.711-2.352-2.603-.34-.4-.736-.691-1.167-.982-.656-.444-.587-.887-.608-1.636l-.243-8.401a436.517 436.517 0 0010.48 3.51.792.792 0 00.035.313c.472 1.46.8 2.959.92 4.49.097 1.258.337 3.006-.64 3.987M106.456 3.692a9.552 9.552 0 01-2.405 1.297c.755-.504 1.562-.94 2.405-1.297m30.338 69.749l.074-.087c-1.055 1.387-2.542 2.344-4.325 2.428 1.603-.374 3.12-1.11 4.251-2.341m6.784-5.025a9.617 9.617 0 01-2.385-3.011 26.153 26.153 0 002.385 3.01m27.922 48.319c-3.512-12.924-11.906-24.714-11.645-38.433.073-3.86 1-7.871 3.623-10.796.434.053.873.067 1.307.026 3.37-.32 5.95-3.04 7.166-6.038 1.464-3.607 1.53-7.916 1.356-11.753-.124-2.762-.576-5.584-1.627-8.16-.382-1.36-1.099-2.578-2.028-3.6-1.643-2.178-3.862-3.93-6.449-4.768-.012-.033-.028-.065-.04-.098.44-2.15.736-4.482-.349-6.48a5.09 5.09 0 00-1.572-1.764c-.49-2-1.3-3.782-2.702-5.248a6.68 6.68 0 00-1.72-2.295 6.535 6.535 0 00-4.579-1.527 10.445 10.445 0 00-2.159-3.106c-3.24-3.241-9.392-4.51-13.33-1.72-.293.208-.588.422-.885.636-.74-2.75-2.68-5.016-5.164-6.425-.195-.154-.382-.316-.589-.457-2.074-1.411-4.779-1.98-7.206-1.386a10.986 10.986 0 00-1.88-1.472 4.362 4.362 0 00-1.93-1.321c-.81-.271-1.664-.337-2.519-.323-1.942-.302-3.965-.131-5.84.592-.188.03-.377.05-.564.085-3.48.642-7.015 2.145-9.405 4.714-1.454.018-2.847-.333-3.912-1.167-3.177-2.487-6.488-3.485-9.773-2.86-3.446.316-5.917 2.658-8.363 4.963l-2.667 2.174c-2.548-1.43-5.083-2.918-7.71-4.18-2.524-1.21-5.357-2.051-8.12-1.15-5.303 1.727-7.257 7.257-8.517 12.199-3.997-2.398-8.987-3.045-13.467-1.712-1.496.444-2.889 1.135-4.172 1.985a14.964 14.964 0 00-5.92 4.757c-2.417 3.254-3.415 7.167-2.955 10.913-.699.282-1.52.435-2.057.646-1.099.43-2.157.957-3.15 1.597a18.612 18.612 0 00-6.067 6.396 15.206 15.206 0 00-2.966 5.578c-1.464 5.099-.23 9.986 2.554 14.048-3.439.86-6.657 2.589-9.06 5.223a14.561 14.561 0 00-3.542 7.047c-1.483 3.949-.968 8.6 2.356 11.652.176.162.36.306.542.455C.435 86.027-.495 90.96.23 94.503c.717 3.505 2.887 6.61 5.862 8.523a10.177 10.177 0 00-1.226 1.74c-.015.023-.034.043-.049.066a5.07 5.07 0 00-.68 1.523c-1.725 4.716-.277 11.03 4.612 13.419 1.141.557 1.255.379 1.712 1.09 1.047 1.63 2.318 2.806 3.698 3.629-.979 1.13-1.472 2.71-1.077 4.489.01.049.024.096.035.144-.035.302-.072.604-.086.906-.168 3.836 1.481 7.412 3.387 10.639 2.076 3.518 4.17 7.153 6.593 10.444 2.184 2.963 5.117 5.625 8.91 6.119 3.022.392 6.276-1.052 7.637-3.764a11.373 11.373 0 002.13 1.439c1.007 1.422 2.521 2.627 3.736 3.57 2.248 1.748 4.837 3.122 7.634 3.73 5.098 1.113 10.771-.536 13.811-4.924a32.793 32.793 0 002.494 2.454c6.327 5.554 14.364 8.604 22.202 11.343 4.618 1.615 9.233 3.265 13.86 4.88.078 2.747.157 5.495.237 8.242.033 1.16-.13 2.514.836 3.353.387.336.86.546 1.22.915.397.407.681.903 1.011 1.363 1.384 1.93 3.4 2.525 5.7 2.17 1.986-.306 4.567-1.186 5.418-3.184.553-1.298.424-2.884.297-4.255a21.5 21.5 0 00-.75-3.955c6.783 2.029 14.358 3.41 21.03.474 7.304-3.215 10.427-10.8 14.695-17.038a.763.763 0 00.44-.208c6.736-6.43 13.868-13.577 16.231-22.785a.865.865 0 00.595-.726c.95-7.663.81-15.395-.363-23.026-.054-.348-.269-.518-.522-.568" fill="#231F20" mask="url(#b)"/></g><path d="M266.44 187.337a41.746 41.746 0 01-.679 3.128.995.995 0 00-.417-.055 57.898 57.898 0 00-19.122 4.76 13.036 13.036 0 01-2.815-4.815.843.843 0 00.032-.739c-1.439-3.399-2.94-6.956-3.11-10.693-.16-3.566 1.151-6.83 2.891-9.875 1.662-2.91 3.467-5.925 5.654-8.474.472-.55.983-1.077 1.524-1.57-.3 1.266-.292 2.651-.164 3.866.338 3.215 1.663 6.248 3.577 8.836a28.552 28.552 0 006.501 6.35c1.981 1.387 4.46 2.103 6.622 1.065a36.728 36.728 0 01-.495 8.216m2.023-10.063a39.457 39.457 0 00-3.979-13.894 15.996 15.996 0 00-1.702-3.61.84.84 0 00-.3-.28 16.81 16.81 0 00-.756-1.454c-.863-1.452-2.146-2.789-3.69-3.404a.723.723 0 00-.656-.354c-.199.002-.39.024-.585.037a4.725 4.725 0 00-1.72.102.752.752 0 00-.402.256c-4.46 1.236-7.633 5.244-10.109 9.08-3.276 5.077-6.548 10.346-5.749 16.643.374 2.935 1.398 5.71 2.524 8.43.002.017-.004.03 0 .045.473 2.885 1.831 5.434 3.735 7.44.08.607.76 1.203 1.511.862a55.143 55.143 0 0118.76-4.763c.831-.059 1.116-.923.865-1.497.253-.074.505-.15.761-.22.15-.04.287-.049.431-.073a38.62 38.62 0 001.061-13.346m30.154 7.701c-1.639-3.401-2.072-7.682-2.468-11.077-.563-4.82-.549-10.03 1.176-14.577.754 3.616 2.68 7.058 6.123 8.703 3.014 1.439 7.433 1.328 9.662-1.275.496 2.233.784 4.518 1.012 6.784.231 2.285.332 4.61.153 6.91-.048-.004-.085-.024-.137-.023a32.356 32.356 0 00-15.52 4.555m17.337-9.131c-.197-3.408-.623-6.886-1.418-10.208a28.653 28.653 0 00-.306-1.158.688.688 0 00-.112-.383c-.932-3.118-2.442-6.11-4.937-8.255a12.83 12.83 0 00-3.574-2.188c-.129-.102-.256-.207-.389-.305-1.025-.75-2.268-1.521-3.593-1.374a2.696 2.696 0 00-1.08.368.708.708 0 00-.897.153c-5.004 5.307-5.944 12.846-5.31 19.83.308 3.41.756 6.912 1.693 10.213.386 1.36.891 2.727 1.575 3.986.156-.13.33-.246.512-.355.184.548.776.97 1.417.584a30.248 30.248 0 0114.602-4.332.924.924 0 00.833-.536c.281.005.562-.004.842.014.251-2.006.26-4.05.142-6.054m-62.074-30.165a43.197 43.197 0 01-18.02 10.734c-1.23.37-.706 2.3.532 1.929a45.345 45.345 0 0018.901-11.25c.914-.907-.5-2.322-1.414-1.413m56.89 2.871c-4.61-.445-9.01-2.177-12.746-4.9-.44-.322-1.11-.073-1.368.357-.301.504-.075 1.053.359 1.369 4.03 2.94 8.797 4.694 13.755 5.174.539.053 1-.496 1-1 0-.584-.46-.947-1-1m-17.412 45.906c-2.04-2.717-4.134-5.396-6.188-8.104-1.986-2.618-4.385-6.168-2.517-9.49.52-.925-.902-1.756-1.422-.83-1.658 2.947-.715 6.327.998 9.018 2.083 3.272 4.683 6.274 7.036 9.355 1.343 1.76 6.01 8 1.415 8.763-1.947.323-3.976-.496-5.758-1.177a46.191 46.191 0 01-5.41-2.497c-.933-.503-1.766.92-.83 1.422 2.777 1.496 5.803 2.948 8.892 3.668 2.418.563 5.9.428 6.556-2.559.607-2.762-1.2-5.476-2.772-7.569m6.555 26.978c-2.555-5.258-8.446-8.77-14.32-8.215-5.764.544-10.763 4.62-12.586 10.09-.408 1.224 1.523 1.748 1.928.53 1.564-4.69 6.04-8.317 11.017-8.648 5.117-.341 10.015 2.684 12.234 7.253.562 1.157 2.288.144 1.727-1.01" fill="#231F20"/></g></svg>
